img/cpp.svg

<?xml version="1.0" encoding="UTF-8" standalone="no"?>
<svg
   width="56"
   height="34.349998"
   viewBox="0 0 56 34.349998"
   version="1.1"
   xmlns="http://www.w3.org/2000/svg"
   xmlns:svg="http://www.w3.org/2000/svg">
  <defs
     id="defs308" />
  <g
     id="surface1"
     transform="translate(12)">
    <path
       style="fill:#00579c;fill-opacity:1;fill-rule:nonzero;stroke:none"
       d="M 30.136719,25.761719 C 30.375,25.347656 30.523438,24.878906 30.523438,24.460938 V 9.890625 c 0,-0.421875 -0.148438,-0.886719 -0.386719,-1.304687 l -14.875,8.589843 z m 0,0"
       id="path291" />
    <path
       style="fill:#00427f;fill-opacity:1;fill-rule:nonzero;stroke:none"
       d="M 16.585938,34.035156 29.203125,26.75 c 0.363281,-0.210938 0.695313,-0.574219 0.933594,-0.988281 l -14.875,-8.585938 -14.871094,8.585938 C 0.628906,26.175781 0.957031,26.539062 1.320312,26.75 l 12.621094,7.285156 c 0.726563,0.421875 1.914063,0.421875 2.644532,0 z m 0,0"
       id="path293" />
    <path
       style="fill:#6399d1;fill-opacity:1;fill-rule:nonzero;stroke:none"
       d="M 30.136719,8.585938 C 29.898438,8.171875 29.566406,7.808594 29.203125,7.601562 L 16.585938,0.316406 c -0.730469,-0.421875 -1.917969,-0.421875 -2.644532,0 L 1.320312,7.601562 C 0.59375,8.019531 0,9.050781 0,9.890625 v 14.570313 c 0,0.417968 0.148438,0.886718 0.390625,1.300781 z m 0,0"
       id="path295" />
    <path
       style="fill:#ffffff;fill-opacity:1;fill-rule:nonzero;stroke:none"
       d="M 15.261719,27.351562 C 9.652344,27.351562 5.085938,22.785156 5.085938,17.175781 5.085938,11.566406 9.652344,7 15.261719,7 c 3.621093,0 6.996093,1.949219 8.8125,5.085938 l -4.402344,2.546874 c -0.910156,-1.570312 -2.597656,-2.542968 -4.410156,-2.542968 -2.804688,0 -5.085938,2.28125 -5.085938,5.085937 0,2.804688 2.28125,5.085938 5.085938,5.085938 1.8125,0 3.5,-0.972657 4.410156,-2.546875 l 4.402344,2.550781 c -1.816407,3.136719 -5.191407,5.085937 -8.8125,5.085937 z m 0,0"
       id="path297" />
    <path
       style="fill:#ffffff;fill-opacity:1;fill-rule:nonzero;stroke:none"
       d="m 25.4375,16.609375 h -1.132812 v -1.128906 h -1.128907 v 1.128906 h -1.128906 v 1.132813 h 1.128906 v 1.128906 h 1.128907 V 17.742188 H 25.4375 Z m 0,0"
       id="path299" />
    <path
       style="fill:#ffffff;fill-opacity:1;fill-rule:nonzero;stroke:none"
       d="m 29.675781,16.609375 h -1.128906 v -1.128906 h -1.132813 v 1.128906 h -1.128906 v 1.132813 h 1.128906 v 1.128906 h 1.132813 v -1.128906 h 1.128906 z m 0,0"
       id="path301" />
  </g>
</svg>

<?xml version="1.0" encoding="UTF-8"?>
<svg xmlns="http://www.w3.org/2000/svg" xmlns:xlink="http://www.w3.org/1999/xlink" width="92" height="34.349998" viewBox="0 0 92 34.349998" version="1.1">
<g id="surface1">
<path style=" stroke:none;fill-rule:nonzero;fill:rgb(0%,34.901962%,61.176473%);fill-opacity:1;" d="M 30.136719 25.761719 C 30.375 25.347656 30.523438 24.878906 30.523438 24.460938 L 30.523438 9.890625 C 30.523438 9.46875 30.375 9.003906 30.136719 8.585938 L 15.261719 17.175781 Z M 30.136719 25.761719 "/>
<path style=" stroke:none;fill-rule:nonzero;fill:rgb(0%,26.666668%,50.980395%);fill-opacity:1;" d="M 16.585938 34.035156 L 29.203125 26.75 C 29.566406 26.539062 29.898438 26.175781 30.136719 25.761719 L 15.261719 17.175781 L 0.390625 25.761719 C 0.628906 26.175781 0.957031 26.539062 1.320312 26.75 L 13.941406 34.035156 C 14.667969 34.457031 15.855469 34.457031 16.585938 34.035156 Z M 16.585938 34.035156 "/>
<path style=" stroke:none;fill-rule:nonzero;fill:rgb(39.607844%,60.392159%,82.352942%);fill-opacity:1;" d="M 30.136719 8.585938 C 29.898438 8.171875 29.566406 7.808594 29.203125 7.601562 L 16.585938 0.316406 C 15.855469 -0.105469 14.667969 -0.105469 13.941406 0.316406 L 1.320312 7.601562 C 0.59375 8.019531 0 9.050781 0 9.890625 L 0 24.460938 C 0 24.878906 0.148438 25.347656 0.390625 25.761719 Z M 30.136719 8.585938 "/>
<path style=" stroke:none;fill-rule:nonzero;fill:rgb(100%,100%,100%);fill-opacity:1;" d="M 15.261719 27.351562 C 9.652344 27.351562 5.085938 22.785156 5.085938 17.175781 C 5.085938 11.566406 9.652344 7 15.261719 7 C 18.882812 7 22.257812 8.949219 24.074219 12.085938 L 19.671875 14.632812 C 18.761719 13.0625 17.074219 12.089844 15.261719 12.089844 C 12.457031 12.089844 10.175781 14.371094 10.175781 17.175781 C 10.175781 19.980469 12.457031 22.261719 15.261719 22.261719 C 17.074219 22.261719 18.761719 21.289062 19.671875 19.714844 L 24.074219 22.265625 C 22.257812 25.402344 18.882812 27.351562 15.261719 27.351562 Z M 15.261719 27.351562 "/>
<path style=" stroke:none;fill-rule:nonzero;fill:rgb(100%,100%,100%);fill-opacity:1;" d="M 25.4375 16.609375 L 24.304688 16.609375 L 24.304688 15.480469 L 23.175781 15.480469 L 23.175781 16.609375 L 22.046875 16.609375 L 22.046875 17.742188 L 23.175781 17.742188 L 23.175781 18.871094 L 24.304688 18.871094 L 24.304688 17.742188 L 25.4375 17.742188 Z M 25.4375 16.609375 "/>
<path style=" stroke:none;fill-rule:nonzero;fill:rgb(100%,100%,100%);fill-opacity:1;" d="M 29.675781 16.609375 L 28.546875 16.609375 L 28.546875 15.480469 L 27.414062 15.480469 L 27.414062 16.609375 L 26.285156 16.609375 L 26.285156 17.742188 L 27.414062 17.742188 L 27.414062 18.871094 L 28.546875 18.871094 L 28.546875 17.742188 L 29.675781 17.742188 Z M 29.675781 16.609375 "/>
</g>
</svg>
